main/svg/creeperFace.svg

<svg xmlns="http://www.w3.org/2000/svg" width="32" height="32"><path d="M16 16C9.371 16 4 21.371 4 27.996V32h2c0-2.21 1.79-4.004 4-4.004h11.996c2.207 0 4 1.793 4 4.004h2v-4.004c0-6.629-5.375-12-12-11.996ZM7 8a3 3 0 0 0-3 2.996V13a3 3 0 0 0 3 3h2.004A3.005 3.005 0 0 0 12 13v-2.004A3.002 3.002 0 0 0 9 8Zm15.996 0A3.004 3.004 0 0 0 20 10.996V13a3.005 3.005 0 0 0 2.996 3H25a3 3 0 0 0 2.996-3v-2.004A3 3 0 0 0 25 8Zm0 0" style="stroke:none;fill-rule:nonzero;fill:#000;fill-opacity:1"/></svg>

<svg xmlns="http://www.w3.org/2000/svg" width="32" height="32"><path d="M16 16C9.371 16 4 21.371 4 28v4h2c0-2.21 1.79-4 4-4h12c2.207 0 4 1.793 4 4h2v-4c0-6.629-5.375-12-12-12ZM7 8a3 3 0 0 0-3 3v2a3 3 0 0 0 3 3h2a3 3 0 0 0 3-3v-2a3 3 0 0 0-3-3Zm16 0a3 3 0 0 0-3 3v2a3 3 0 0 0 3 3h2a3 3 0 0 0 3-3v-2a3 3 0 0 0-3-3Zm0 0" style="stroke:none;fill-rule:nonzero;fill:#000;fill-opacity:1"/></svg>
